styles/2/Numix/64/places/brown-folder-books.svg

<?xml version="1.0" encoding="UTF-8" standalone="no"?>
<svg
   xmlns:dc="http://purl.org/dc/elements/1.1/"
   xmlns:cc="http://creativecommons.org/ns#"
   xmlns:rdf="http://www.w3.org/1999/02/22-rdf-syntax-ns#"
   xmlns:svg="http://www.w3.org/2000/svg"
   xmlns="http://www.w3.org/2000/svg"
   xmlns:sodipodi="http://sodipodi.sourceforge.net/DTD/sodipodi-0.dtd"
   xmlns:inkscape="http://www.inkscape.org/namespaces/inkscape"
   width="64"
   height="64"
   viewBox="0 0 64 64"
   id="svg2"
   version="1.1"
   inkscape:version="0.91 r"
   sodipodi:docname="brown-folder-books.svg">
  <metadata
     id="metadata14">
    <rdf:RDF>
      <cc:Work
         rdf:about="">
        <dc:format>image/svg+xml</dc:format>
        <dc:type
           rdf:resource="http://purl.org/dc/dcmitype/StillImage" />
      </cc:Work>
    </rdf:RDF>
  </metadata>
  <defs
     id="defs12" />
  <sodipodi:namedview
     pagecolor="#ffffff"
     bordercolor="#666666"
     borderopacity="1"
     objecttolerance="10"
     gridtolerance="10"
     guidetolerance="10"
     inkscape:pageopacity="0"
     inkscape:pageshadow="2"
     inkscape:window-width="1366"
     inkscape:window-height="747"
     id="namedview10"
     showgrid="true"
     inkscape:zoom="2.8284273"
     inkscape:cx="-15.295703"
     inkscape:cy="60.055127"
     inkscape:window-x="0"
     inkscape:window-y="21"
     inkscape:window-maximized="1"
     inkscape:current-layer="svg2">
    <inkscape:grid
       type="xygrid"
       id="grid2991" />
  </sodipodi:namedview>
  <path
     style="fill:#8d6e63;stroke:none;fill-opacity:1"
     d="M 9,8 C 7.5360831,8 6,9.5112224 6,11 l 0,1 -3,0 c -1.4700989,0 -3,1.49533 -3,3 l 0,38 c 0,2 1,3 3,3 l 58,0 c 1.567614,0 3,-1.358342 3,-3 l 0,-33 c 0,-1.504928 -1.455038,-3 -3,-3 l -3,0 0,-6 C 58,9.5388438 56.546781,8 55,8 z"
     id="path6"
     inkscape:connector-curvature="0"
     sodipodi:nodetypes="ssccssssscccsss" />
  <path
     style="fill:#000000;stroke:none;fill-opacity:0.32156864"
     d="M 9 8 C 7.5360831 8 6 9.5112224 6 11 L 6 12 L 3 12 C 1.5299011 12 0 13.49533 0 15 L 0 53 C 0 55 1 56 3 56 L 61 56 C 62.567614 56 64 54.641658 64 53 L 64 20 C 64 18.495072 62.544962 17 61 17 L 58 17 L 58 11 C 58 9.5388438 56.546781 8 55 8 L 9 8 z M 3 14 L 37 14 C 37.590175 14 38 14.51477 38 15 L 38 19 L 61 19 C 61.505551 19 62 19.508742 62 20 L 62 53 C 62 53.521292 61.521234 54 61 54 L 3 54 C 2.5357049 54 2 53.603654 2 53 L 2 15 C 2 14.507595 2.5165286 14 3 14 z "
     id="path3778" />
  <g
     transform="matrix(5.3149594,0,0,5.3149594,20.000002,-22.999996)"
     inkscape:label="Symbol"
     id="layer3"
     style="opacity:1;fill:#000000;fill-opacity:0.32156864">
    <path
       inkscape:connector-curvature="0"
       style="fill:#000000;fill-opacity:0.32156864;fill-rule:nonzero;stroke:none"
       d="m 2.6340743,13.546668 0,-3.01037 -0.7525928,10e-7 0,3.01037 z M 1.5051852,10.348057 -3.1968253e-7,9.2193549 l 0,3.0104641 L 1.5051852,13.358521 Z m 3.0103711,1.881762 0,-3.0104641 -1.5051856,1.1286551 0,3.010559 z M 4.2333338,9.0311124 C 3.386667,9.0311123 2.8222225,9.3133345 2.257778,9.7837051 1.6933334,9.3133345 1.1288889,9.0311123 0.28222213,9.0311124 l 1.59925937,1.1288886 0.7525928,0 z"
       id="path53-8"
       sodipodi:nodetypes="ccccccccccccccccccccc" />
  </g>
</svg>

<svg xmlns="http://www.w3.org/2000/svg" viewBox="0 0 64 64">
 <path d="m 9 8 c -1.464 0 -3 1.511 -3 3 l 0 1 -3 0 c -1.47 0 -3 1.495 -3 3 l 0 38 c 0 2 1 3 3 3 l 58 0 c 1.568 0 3 -1.358 3 -3 l 0 -33 c 0 -1.505 -1.455 -3 -3 -3 l -3 0 0 -6 c 0 -1.461 -1.453 -3 -3 -3 z" style="fill:#8d6e63;fill-opacity:1;stroke:none"/>
 <path d="m 9 8 c -1.464 0 -3 1.511 -3 3 l 0 1 l -3 0 c -1.47 0 -3 1.495 -3 3 l 0 38 c 0 2 1 3 3 3 l 58 0 c 1.568 0 3 -1.358 3 -3 l 0 -33 c 0 -1.505 -1.455 -3 -3 -3 l -3 0 l 0 -6 c 0 -1.461 -1.453 -3 -3 -3 l -46 0 z m -6 6 l 34 0 c 0.59 0 1 0.515 1 1 l 0 4 l 23 0 c 0.506 0 1 0.509 1 1 l 0 33 c 0 0.521 -0.479 1 -1 1 l -58 0 c -0.464 0 -1 -0.396 -1 -1 l 0 -38 c 0 -0.492 0.517 -1 1 -1 z" style="fill:#000;fill-opacity:0.322;stroke:none"/>
 <g transform="matrix(5.3149594,0,0,5.3149594,20.000002,-22.999996)" style="fill:#000;opacity:1;fill-opacity:0.322">
  <path d="m 2.634 13.547 0 -3.01 -0.753 0 0 3.01 z m -1.129 -3.199 -1.505 -1.129 l 0 3.01 l 1.505 1.129 m 3.01 -1.129 0 -3.01 -1.505 1.129 0 3.01 z m -0.282 -3.199 c -0.847 0 -1.411 0.282 -1.976 0.753 -0.564 -0.47 -1.129 -0.753 -1.976 -0.753 l 1.599 1.129 0.753 0 z" style="fill:#000;fill-opacity:0.322;stroke:none;fill-rule:nonzero"/>
 </g>
</svg>
